X:1
T:Eternal Light, 86.886
T:Eternal Light, 86.886
T:Thoro Harris (1874-1955)
T:Public Domain Courtesy of the Cyber Hymnal™
C:Thoro Harris (1874-1955)
Z:Public Domain
Z:Courtesy of the Cyber Hymnal™
%%score ( 1 2 ) ( 3 4 )
L:1/8
Q:1/4=112
M:4/4
K:G
V:1 treble 
V:2 treble 
V:3 bass 
V:4 bass 
V:1
 [DG]2 | [DF]3 [CE] [CD]2 [Fc]2 | [GB]3 [DA] [DG]2 [GB]2 | [Ge]2 d2 [EG]2 [Ae]2 | [GB]6 [DB]2 | %5
 d3 z A A2 [Fc]2 | [Ac]3 [GB] [FA]2 [AB]2 | e3 z B B2 [^Gd]2 | [Bd]3 [Ac] [Ec]2 [FA]2 | %9
 [GB]2 [Gc]2 [GB]2 [FA]2 x | G6 |] %11
V:2
 x2 | x8 | x8 | x2 (GF) x4 | x8 | F2 (G2 A2) x3 | x8 | ^G2 (A2 B2) x3 | x8 | x9 | G6 |] %11
V:3
 [G,B,]2 | [A,C]3 [G,A,] [F,A,]2 [D,E]2 | [G,D]3 [G,C] [G,B,]2 [G,D]2 | C2 [B,D]2 [E,B,E]2 [F,D]2 | %4
 [G,D]6 [G,B,]2 | A,3 z ^C [F,D]2 [D,D]2 | [G,D]3 [G,D] [G,D]2 [=F,D]2 | B,3 z ^D [G,E]2 [E,E]2 | %8
 [A,=F]3 [A,E] [A,E]2 [D,C]2 | [G,B,]2 [C,E]2 D3 z C | [G,,B,]6 |] %11
V:4
 x2 | x8 | x8 | C2 x6 | x8 | D,2 E,2 x5 | x8 | E,2 F,2 x5 | x8 | x4 D,2 D,2 x | x6 |] %11

